X:1
T:Lady Radcliffe's
T:Lady Radcliffe's
T:Alexander Walker
C:Alexander Walker
L:1/8
M:2/2
K:F
V:1 treble 
V:1
 C | F2 AF AcfA | F2 AF ECGC | F2 AF Acfd | cAGA F2 F :| f | af f2 cf f2 | afcf dggb | af f2 cfAf | %9
 BGEC F2 FA | BddB AccA | BAGF EGGB | AFcF dFeF | dgec f2 f || %14

